!!!COM: Tin, Saya
!!!CDT: 1914-1947
!!!OTL: National Anthem, Myanmar
!!!ENC: Davis, Matthew J.
!!Vocal Line Only
**kern
*clefG2
*k[b-e-a-d-]
*A-:
*M4/8
=1-
8.f
16g
4a-
=2
8.f
16g
4a-
=3
8ee-
16ff
16ee-
8dd-
16ee-
16dd-
=4
8cc
16b-
16cc
4a-
==:|!5
8ee-
16ff
16ee-
8dd-
16ee-
16dd-
=6
8cc
16b-
16cc
4ee-
=7
8ee-
16ff
16ee-
8dd-
16ee-
16dd-
=8
8cc
16b-
16cc
4a-
=9
4b-
4e-
=10
4b-
4e-
=11
4a-
4g
=12
6c
6d-
6e-
4g
=13
4f
6ee-
6b-
6cc
=14
4dd
4cc
=15
6b-
6f
6g
4b-
=16
4a-
4e-
=17
2a-
==|!
*-
